src/icons/swagger.svg

<?xml version="1.0" encoding="UTF-8"?>
<svg xmlns="http://www.w3.org/2000/svg" xmlns:xlink="http://www.w3.org/1999/xlink" width="32" height="32" viewBox="0 0 32 32" version="1.1">
<g id="surface1">
<path style=" stroke:none;fill-rule:nonzero;fill:rgb(100%,100%,100%);fill-opacity:1;" d="M 15.882812 32 C 7.355469 31.941406 -0.0585938 24.863281 0 15.875 C 0.0546875 7.222656 7.242188 -0.0585938 16.140625 0 C 24.785156 0.0585938 32.078125 7.234375 32 16.023438 C 32.070312 24.734375 24.742188 32.0625 15.882812 32 M 15.882812 32 C 7.355469 31.941406 -0.0585938 24.863281 0 15.875 C 0.0546875 7.222656 7.242188 -0.0585938 16.140625 0 C 24.785156 0.0585938 32.078125 7.234375 32 16.023438 C 32.070312 24.734375 24.742188 32.0625 15.882812 32 M 15.882812 32 "/>
<path style=" stroke:none;fill-rule:nonzero;fill:rgb(28.627452%,63.921571%,16.862746%);fill-opacity:1;" d="M 15.898438 29.875 C 8.503906 29.824219 2.074219 23.6875 2.125 15.890625 C 2.171875 8.390625 8.40625 2.074219 16.121094 2.125 C 23.617188 2.175781 29.941406 8.398438 29.875 16.019531 C 29.9375 23.574219 23.582031 29.929688 15.898438 29.875 M 15.898438 29.875 C 8.503906 29.824219 2.074219 23.6875 2.125 15.890625 C 2.171875 8.390625 8.40625 2.074219 16.121094 2.125 C 23.617188 2.175781 29.941406 8.398438 29.875 16.019531 C 29.9375 23.574219 23.582031 29.929688 15.898438 29.875 M 15.898438 29.875 "/>
<path style=" stroke:none;fill-rule:nonzero;fill:rgb(100%,100%,100%);fill-opacity:1;" d="M 21.164062 15.996094 C 21.128906 16.65625 20.550781 17.203125 19.984375 17.109375 L 19.976562 17.109375 C 19.347656 17.109375 18.832031 16.601562 18.832031 15.96875 C 18.855469 15.335938 19.378906 14.835938 20.011719 14.847656 C 20.640625 14.851562 21.199219 15.382812 21.164062 15.996094 M 11.023438 22.402344 C 11.261719 22.410156 11.5 22.40625 11.773438 22.40625 L 11.773438 24.128906 C 10.070312 24.414062 8.667969 23.933594 8.324219 22.492188 C 8.203125 21.960938 8.132812 21.421875 8.105469 20.878906 C 8.070312 20.304688 8.132812 19.726562 8.089844 19.152344 C 7.96875 17.578125 7.761719 17.039062 6.25 16.964844 L 6.25 15 C 6.359375 14.976562 6.46875 14.957031 6.578125 14.945312 C 7.410156 14.90625 7.757812 14.648438 7.945312 13.832031 C 8.027344 13.375 8.078125 12.910156 8.09375 12.441406 C 8.160156 11.539062 8.136719 10.625 8.285156 9.738281 C 8.503906 8.453125 9.300781 7.828125 10.617188 7.761719 C 10.988281 7.738281 11.367188 7.757812 11.789062 7.757812 L 11.789062 9.519531 C 11.617188 9.53125 11.457031 9.554688 11.296875 9.550781 C 10.222656 9.519531 10.167969 9.882812 10.089844 10.769531 C 10.042969 11.328125 10.109375 11.894531 10.070312 12.453125 C 10.03125 13.007812 9.957031 13.5625 9.847656 14.109375 C 9.695312 14.902344 9.207031 15.492188 8.53125 15.992188 C 9.839844 16.84375 9.992188 18.167969 10.074219 19.515625 C 10.121094 20.238281 10.101562 20.964844 10.175781 21.683594 C 10.230469 22.242188 10.449219 22.386719 11.023438 22.402344 M 12.128906 14.847656 L 12.148438 14.847656 C 12.449219 14.851562 12.738281 14.976562 12.945312 15.195312 C 13.15625 15.410156 13.269531 15.703125 13.265625 16.003906 L 13.265625 16.0625 C 13.230469 16.675781 12.703125 17.144531 12.089844 17.109375 C 12.066406 17.109375 12.042969 17.109375 12.015625 17.105469 C 11.390625 17.074219 10.910156 16.542969 10.941406 15.917969 C 10.972656 15.296875 11.503906 14.816406 12.128906 14.847656 M 16.035156 14.847656 C 16.71875 14.84375 17.175781 15.289062 17.179688 15.964844 C 17.183594 16.660156 16.75 17.105469 16.070312 17.109375 C 15.378906 17.113281 14.921875 16.671875 14.917969 16 C 14.914062 15.964844 14.914062 15.929688 14.917969 15.898438 C 14.933594 15.300781 15.4375 14.828125 16.035156 14.847656 M 24.210938 13.992188 C 24.390625 14.671875 24.746094 14.910156 25.464844 14.941406 C 25.582031 14.949219 25.699219 14.96875 25.859375 14.988281 L 25.859375 16.949219 C 25.769531 16.976562 25.683594 17 25.589844 17.011719 C 24.628906 17.070312 24.191406 17.464844 24.097656 18.429688 C 24.035156 19.042969 24.039062 19.664062 23.996094 20.28125 C 23.980469 20.960938 23.917969 21.636719 23.8125 22.304688 C 23.566406 23.519531 22.808594 24.121094 21.558594 24.195312 C 21.15625 24.21875 20.75 24.199219 20.316406 24.199219 L 20.316406 22.449219 C 20.550781 22.433594 20.757812 22.414062 20.960938 22.40625 C 21.710938 22.390625 21.972656 22.148438 22.011719 21.40625 C 22.050781 20.589844 22.070312 19.773438 22.105469 18.957031 C 22.160156 17.777344 22.480469 16.726562 23.582031 15.992188 C 22.953125 15.542969 22.445312 15 22.316406 14.265625 C 22.15625 13.378906 22.105469 12.472656 22.023438 11.574219 C 21.980469 11.125 21.980469 10.671875 21.9375 10.222656 C 21.890625 9.734375 21.558594 9.566406 21.117188 9.558594 C 20.863281 9.550781 20.609375 9.554688 20.285156 9.554688 L 20.285156 7.84375 C 22.347656 7.5 23.773438 8.1875 23.90625 10.164062 C 23.960938 10.992188 23.953125 11.824219 24.007812 12.652344 C 24.03125 13.105469 24.097656 13.550781 24.210938 13.992188 M 24.210938 13.992188 "/>
</g>
</svg>

<svg role="img" viewBox="0 0 32 32" xmlns="http://www.w3.org/2000/svg"><path d="M15.883 32C7.355 31.941-.06 24.863 0 15.875.055 7.223 7.242-.059 16.14 0 24.786.059 32.079 7.234 32 16.023c.07 8.711-7.258 16.04-16.117 15.977m0 0C7.355 31.941-.06 24.863 0 15.875.055 7.223 7.242-.059 16.14 0 24.786.059 32.079 7.234 32 16.023c.07 8.711-7.258 16.04-16.117 15.977m0 0" style="stroke:none;fill-rule:nonzero;fill:rgb(100%,100%,100%);fill-opacity:1"/><path d="M15.898 29.875c-7.394-.05-13.824-6.187-13.773-13.984.047-7.5 6.281-13.817 13.996-13.766 7.496.05 13.82 6.273 13.754 13.895.063 7.554-6.293 13.91-13.977 13.855m0 0c-7.394-.05-13.824-6.187-13.773-13.984.047-7.5 6.281-13.817 13.996-13.766 7.496.05 13.82 6.273 13.754 13.895.063 7.554-6.293 13.91-13.977 13.855m0 0" style="stroke:none;fill-rule:nonzero;fill:rgb(28.627452%,63.921571%,16.862746%);fill-opacity:1"/><path d="M21.164 15.996c-.035.66-.613 1.207-1.18 1.113h-.007a1.143 1.143 0 0 1-1.145-1.14 1.162 1.162 0 0 1 1.18-1.121c.629.004 1.187.535 1.152 1.148m-10.14 6.406c.238.008.476.004.75.004v1.723c-1.704.285-3.106-.195-3.45-1.637a9.37 9.37 0 0 1-.219-1.613c-.035-.574.028-1.152-.015-1.727-.121-1.574-.328-2.113-1.84-2.187V15c.11-.023.219-.043.328-.055.832-.039 1.18-.297 1.367-1.113.082-.457.133-.922.149-1.39.066-.903.043-1.817.191-2.704.219-1.285 1.016-1.91 2.332-1.976.371-.024.75-.004 1.172-.004V9.52c-.172.011-.332.035-.492.03-1.074-.03-1.129.333-1.207 1.22-.047.558.02 1.125-.02 1.683-.039.555-.113 1.11-.222 1.656-.153.793-.641 1.383-1.317 1.883 1.309.852 1.461 2.176 1.543 3.524.047.722.028 1.449.102 2.168.054.558.273.703.847.718m1.105-7.554h.02a1.135 1.135 0 0 1 1.117 1.156v.058a1.114 1.114 0 0 1-1.176 1.047c-.024 0-.047 0-.074-.004a1.13 1.13 0 0 1 .113-2.258m3.906 0c.684-.004 1.14.441 1.145 1.117.004.695-.43 1.14-1.11 1.144-.691.004-1.148-.437-1.152-1.109a.441.441 0 0 1 0-.102c.016-.597.52-1.07 1.117-1.05m8.176-.856c.18.68.535.918 1.254.95.117.007.234.027.394.046v1.961c-.09.028-.175.051-.27.063-.96.058-1.398.453-1.491 1.418-.063.613-.059 1.234-.102 1.851-.016.68-.078 1.356-.183 2.024-.247 1.215-1.004 1.816-2.254 1.89-.403.024-.809.004-1.243.004v-1.75c.235-.015.442-.035.645-.043.75-.015 1.012-.258 1.05-1 .04-.816.06-1.633.094-2.449.055-1.18.375-2.23 1.477-2.965-.629-.449-1.137-.992-1.266-1.726-.16-.887-.21-1.793-.293-2.692-.043-.449-.043-.902-.085-1.351-.047-.489-.38-.657-.82-.664-.255-.008-.509-.004-.833-.004v-1.71c2.063-.344 3.488.343 3.621 2.32.055.828.047 1.66.102 2.488.023.453.09.899.203 1.34m0 0" style="stroke:none;fill-rule:nonzero;fill:rgb(100%,100%,100%);fill-opacity:1"/></svg>
